X:1
T:Title
%%score { 1 | 2 }
L:1/8
M:4/4
K:Ab
V:1 treble nm="Grand Piano"
V:2 bass 
V:1
 z4 z2 z[Q:1/4=100] [A,CE] | [A,CE]2 [A,EA]>[A,EG] [A,DF]2 [DFB]>[DFA] | %2
 [B,EG]2 [A,EF]>[B,EG] [CEA]3 [Ec] | [=Ec]2 [EG]>[GB] [GB]2 [FA]>[EG] | %4
 [=DF]2 [DB]>[DF] [EG]3 [_DE] | [CE]2 [Ec]>[DB] [DB] [CA]2 [CE] | E2 d>c B3 [Ge] | e2 d>c B F2 A | %8
 G c2 B [CA]4 | B2 =AB [Gd]3 B | G2 FE [CA]3 c | c2 _c=c e2 dc | c2 BA B3 E | %13
 [Ec]2 [DB][CA] [DA] [DG]2 E | d2 cB c3 e | e2 d>c B F2 [=DA] | G c2 B [CA]4 |] %17
V:2
 z4 z2 z A,, | A,,2 C,>C, E,2 D,>D, | E,2 E,>E, A,,3 [A,,A,] | %3
 [C,G,]2 [C,C]>[C,C] [F,C]2 [F,C]>[F,B,] | [B,,A,]2 [B,,F,]>[B,,B,] [E,B,]3 [E,G,] | %5
 [A,,A,]2 [A,,A,]>[A,,E,] [A,,E,] [A,,E,]2 [A,,A,] | [E,G,B,]2 [E,B,E]>[E,A,E] [E,G,E]3 [E,B,] | %7
 [A,CA]2 [A,F]>[K:bass][A,E] [D,A,D] [D,A,D]2 [D,B,D] | [E,B,D] [E,A,E]2 [E,G,D] [A,,A,]4 | %9
 [E,G,E]2 [E,_G,E][E,=G,E] [E,B,]3 [E,G,E] | [E,B,D]2 [E,A,D][E,G,D] [A,,A,]3 [A,E] | %11
 [A,E]2 [A,=D][A,E] [A,CE]2 [G,B,E][A,E] | [F,B,=D]2 [F,A,D][F,B,D] [E,G,_D]3 [E,G,] | %13
 [A,,A,]2 [A,,A,][A,,A,] [B,,E,] [B,,E,]2 [E,G,] | %14
 [E,B,E]2 [E,A,E][E,G,E][K:treble] [A,E]3 [A,C_G] | %15
 [A,C_G]2 [A,F]>[A,E][K:bass] [D,A,D] [D,A,D]2 [B,,B,] | [E,B,E] [E,A,E]2 [E,G,D] [A,,A,]4 |] %17

